cssgg/chevron-double-up-r.svg

<svg
  width="24"
  height="24"
  viewBox="0 0 24 24"
  fill="none"
  xmlns="http://www.w3.org/2000/svg"
>
  <path
    d="M14.8284 12.4813L16.2426 11.067L12 6.82444L7.75732 11.0671L9.17154 12.4813L12 9.65286L14.8284 12.4813Z"
    fill="currentColor"
  />
  <path
    d="M14.8284 16.7239L16.2426 15.3097L12 11.0671L7.75732 15.3097L9.17154 16.7239L12 13.8955L14.8284 16.7239Z"
    fill="currentColor"
  />
  <path
    fill-rule="evenodd"
    clip-rule="evenodd"
    d="M23 4.77411C23 2.56497 21.2091 0.774109 19 0.774109H5C2.79086 0.774109 1 2.56497 1 4.77411V18.7741C1 20.9832 2.79086 22.7741 5 22.7741H19C21.2091 22.7741 23 20.9832 23 18.7741V4.77411ZM19 2.77411H5C3.89543 2.77411 3 3.66954 3 4.77411V18.7741C3 19.8787 3.89543 20.7741 5 20.7741H19C20.1046 20.7741 21 19.8787 21 18.7741V4.77411C21 3.66954 20.1046 2.77411 19 2.77411Z"
    fill="currentColor"
  />
</svg>

<svg viewBox="0 0 24 24" xmlns="http://www.w3.org/2000/svg"><g><path d="M14.82 12.48l1.41-1.42 -4.25-4.25 -4.25 4.24 1.41 1.41 2.82-2.83 2.82 2.82Z"/><path d="M14.82 16.72l1.41-1.42 -4.25-4.25 -4.25 4.24 1.41 1.41 2.82-2.83 2.82 2.82Z"/><path fill-rule="evenodd" d="M23 4.77c0-2.21-1.8-4.01-4-4.01H5c-2.21 0-4 1.79-4 4v13.99c0 2.2 1.79 4 4 4h14c2.2 0 4-1.8 4-4v-14Zm-4-2H5c-1.11 0-2 .89-2 2v13.99c0 1.1.89 2 2 2h14c1.1 0 2-.9 2-2v-14c0-1.11-.9-2-2-2Z"/></g></svg>
